X: 8636
T: Crooked Wood, The
R: jig
M: 6/8
K: Gmajor
|:~g3 gdB|~g3 gdB|bag agf|agf ~g2f|
def ~g3|dBG GAB|cde dBG|1 AGG GB/c/d:|2 AGG G2D||
|:~G3 ABc|ded ~B3|ded BAG|~A3 BGE|
~G3 ABc|ded Bge|dBG AGA|1 BGG G2D:|2 BGG GB/c/d||

